icons/mouse-altB.svg

<svg width="24" height="24" viewBox="0 0 24 24" fill="none" xmlns="http://www.w3.org/2000/svg">
<path d="M18.3062 18.3625C15.7062 20.9625 11.7062 20.9625 9.2062 18.3625L5.6062 14.7625C3.1062 12.2625 3.1062 8.1625 5.6062 5.6625L5.7062 5.5625C8.2062 3.0625 12.3062 3.0625 14.8062 5.5625L18.4062 9.1625C20.9062 11.7625 20.9062 15.7625 18.3062 18.3625Z" fill="black"/>
<path fill-rule="evenodd" clip-rule="evenodd" d="M14.2759 6.09283C12.0688 3.88572 8.44364 3.88572 6.23653 6.09283L6.13653 6.19283C3.92943 8.39994 3.92942 12.0251 6.13653 14.2322L9.74173 17.8374L9.74683 17.8427C11.9461 20.1299 15.4629 20.1452 17.7759 17.8322C20.0831 15.5249 20.0846 11.9954 17.8705 9.68748L14.2759 6.09283ZM5.17587 5.03217C7.96876 2.23928 12.5436 2.23928 15.3365 5.03217L18.9417 8.63737L18.9468 8.64267C21.7278 11.5349 21.7276 16.0018 18.8365 18.8928C15.9513 21.778 11.4719 21.7951 8.67083 18.8878L5.07587 15.2928C2.28298 12.4999 2.28298 7.92506 5.07587 5.13217L5.17587 5.03217Z" fill="black"/>
<path fill-rule="evenodd" clip-rule="evenodd" d="M8.57587 8.63215C8.86876 8.33925 9.34364 8.33925 9.63653 8.63215L11.0365 10.0321C11.3294 10.325 11.3294 10.7999 11.0365 11.0928C10.7436 11.3857 10.2688 11.3857 9.97587 11.0928L8.57587 9.69281C8.28298 9.39991 8.28298 8.92504 8.57587 8.63215Z" fill="white"/>
</svg>

<svg xmlns="http://www.w3.org/2000/svg" fill="none" viewBox="0 0 24 24">
  <path fill="#000" d="M18.306 18.363c-2.6 2.6-6.6 2.6-9.1 0l-3.6-3.6c-2.5-2.5-2.5-6.6 0-9.1l.1-.1c2.5-2.5 6.6-2.5 9.1 0l3.6 3.6c2.5 2.6 2.5 6.6-.1 9.2Z"/>
  <path fill="#000" fill-rule="evenodd" d="M14.276 6.093c-2.207-2.207-5.832-2.207-8.04 0l-.1.1c-2.207 2.207-2.207 5.832 0 8.04l3.606 3.604.005.006c2.2 2.287 5.716 2.302 8.029-.01 2.307-2.308 2.309-5.838.095-8.146l-3.595-3.594Zm-9.1-1.06c2.793-2.794 7.368-2.794 10.16 0l3.606 3.604.005.006c2.78 2.892 2.78 7.359-.11 10.25-2.886 2.885-7.365 2.902-10.166-.005l-3.595-3.595c-2.793-2.793-2.793-7.368 0-10.16l.1-.1Z" clip-rule="evenodd"/>
  <path fill="#fff" fill-rule="evenodd" d="M8.576 8.632a.75.75 0 0 1 1.06 0l1.4 1.4a.75.75 0 0 1-1.06 1.06l-1.4-1.4a.75.75 0 0 1 0-1.06Z" clip-rule="evenodd"/>
</svg>
